svg/video_high_definition.svg

<svg xmlns="http://www.w3.org/2000/svg" viewBox="0 0 24 24"><path d="M14 10v4c0 .3-.2.5-.5.5h-1v-5h1c.3 0 .5.2.5.5m3 .5V7c0-.6-.4-1-1-1H4c-.6 0-1 .4-1 1v10c0 .6.4 1 1 1h12c.6 0 1-.4 1-1v-3.5l4 4v-11zM9.5 16H8v-3.2H6V16H4.5V8H6v3.2h2V8h1.5zm6-1.5c0 .8-.7 1.5-1.5 1.5h-3V8h3c.8 0 1.5.7 1.5 1.5z"/></svg>

<?xml version="1.0" encoding="UTF-8"?><!DOCTYPE svg PUBLIC "-//W3C//DTD SVG 1.1//EN" "http://www.w3.org/Graphics/SVG/1.1/DTD/svg11.dtd"><svg xmlns="http://www.w3.org/2000/svg" xmlns:xlink="http://www.w3.org/1999/xlink" version="1.1" id="mdi-video-high-definition" width="24" height="24" viewBox="0 0 24 24"><path d="M14 10V14C14 14.3 13.8 14.5 13.5 14.5H12.5V9.5H13.5C13.8 9.5 14 9.7 14 10M17 10.5V7C17 6.4 16.6 6 16 6H4C3.4 6 3 6.4 3 7V17C3 17.6 3.4 18 4 18H16C16.6 18 17 17.6 17 17V13.5L21 17.5V6.5L17 10.5M9.5 16H8V12.8H6V16H4.5V8H6V11.2H8V8H9.5V16M15.5 14.5C15.5 15.3 14.8 16 14 16H11V8H14C14.8 8 15.5 8.7 15.5 9.5V14.5Z" /></svg>
